X:1
T: Two Penny Jig
C:
R:Jig
Q:180
K:F
M:6/8
L:1/16
|:G2F2D2 B4c2|d2B2G2 G2F2D2|G4A2 B4c2|d2B2G2 G4B2|
G2F2D2 B4c2|d2B2G2 A2G2A2|F2A2c2 g2e2d2|1c2A2F2 F2G2A2:|2c2A2F2 F4c2|
|:d2f2d2 c2d2c2|B2d2B2 A2G2F2|G4A2 B4c2|d2B2G2 G4c2|
d2f2d2 c2f2c2|B2d2B2 A2G2A2|F2A2c2 f2e2d2|1c2A2F2|F2A2c2:|2c2A2F2 F6||
